X:1
T: The Lass of Corrie Mill
C:
R:Strathspey
Q: 128
K:F
M:4/4
L:1/16
C2|:F3G A3F EG3 F4|Ac3 c3B Ac3 c4|d3f c3f B3f A3f|((3a2g2f2) ((3e2f2d2) ((3c2d2B2) ((3A2B2G2) |
F3G A3F EG3 F4 Ac3 c3B Ac3 c4|d3f c3f B3f A3f|((3a2g2f2) ((3d2e2f2) AF3 F3B|
Ac3 c3B Af3 f4 eg3 g3e fa3 a4|bg3 af3 g3e f3g|((3a2g2f2) ((3e2f2d2) ((3c2d2B2) ((3A2B2G2) |
Ac3 c3B Af3 f4|eg3 g3e fa3 a4|bg3 af3 g3e f3g|1((3a2g2f2) ((3e2f2g2) af3 fa3:|2((3a2g2f2) ((3e2f2g2) af3 f2||
